X:1
T:The Cuckoo's Nest
M:4/4
L:1/8
K:D
 AG| F2 ED dd dd| ed cB A2 AB| BB AB cB cd| ec AF G2| AG| F2 ED dd dd|\
 ec AF G2 AG| FE FE DE FG| E2 DD D2| Ad| d2 dd d2 cd| ed cB A2 AB|\
 cB AB cB cd| ec AF G2| AG| FE FE Dd de| fd AF G2 AG| FE FE DE FG|\
 D2 DD D2||
